!!!COM: Anonymous
!!!OTL: Jen ay le deul et vous la joie
!!!AGN: Songs; Chanson; Rondeau
!!!SCT: Ano3151
!!!SCA: Ano3151
!!!SMS: Dijon Chansonnier
!!!folio: 144v-145r
!!!voices: 3
**kern	**kern	**kern
*staff3	*staff2	*staff1
*Ivox	*Ivox	*Ivox
*I"Contra	*I"Tenor	*I"Discantus
*I'C	*I'T	*I'D
*clefGv2	*clefGv2	*clefG2
*k[]	*k[]	*k[]
*M3/1	*M3/1	*M3/1
*met(O)	*met(O)	*met(O)
=1-	=1-	=1-
0.C	0.c	1.cc
.	.	4b
.	.	4a
.	.	2g
.	.	2a
=2	=2	=2
1G	0.d	1b
0D	.	2a
.	.	1a
.	.	4g
.	.	4f
=3	=3	=3
0C	0.e	1e
.	.	1c
1C	.	1g
=4	=4	=4
1.F	0f	2.a
.	.	4b
.	.	2cc
1.BB-	.	2.dd
.	1f	.
.	.	4cc
.	.	4b
.	.	4a
=5	=5	=5
1C	2e	1g
.	1c	.
1r	.	2a
.	2d	2b
2c	2e	2cc
2B	2f	[2dd
=6	=6	=6
2G	1g	2dd]
2c	.	2.ee
2r	1c	.
.	.	4cc
2A	.	1cc
1G	1d	.
.	.	2b
=7	=7	=7
1.C	0.c	1cc
.	.	1r
2D	.	.
2E	.	1cc
2F	.	.
=8	=8	=8
1G	1r	1b
0F	1r	1.a
.	1cc	.
.	.	2g
=9	=9	=9
1G	1b	1g
0D	1.a	1.f
.	2g	2e
=10	=10	=10
2r	1g	1e
1.C	.	.
.	1e	2.g
.	.	4f
1BB	1f	1d
=11	=11	=11
2.C	1e	1c
4D	.	.
2.E	2.g	2r
.	.	1cc
4F	4f	.
1G	1d	.
.	.	2b
=12	=12	=12
2C	1c	2.cc
1F	.	.
.	.	4b
.	2d	4a
.	.	4g
2G	2B	1g
1D	1A	.
.	.	2f#i
=13	=13	=13
2rN	0.GN	0gN
1G	.	.
2A	.	.
1B	.	1r
=14	=14	=14
1c	0.r	1c
1C	.	1e
1D	.	1f
=15	=15	=15
2E	1c	0g
1C	.	.
.	1e	.
2E	.	.
1D	1f	2.a
.	.	4g
=16	=16	=16
2E	0g	1e
2.C	.	.
.	.	1c
4D	.	.
4E	.	.
4F	.	.
1D	2.a	1f
.	4g	.
=17	=17	=17
2C	2.e	2g
1F	.	1a
.	4c	.
.	2d	.
2E	1e	2g
2C	.	2cc
2G	2d	4b
.	.	4a
=18	=18	=18
1r	1.g	0b
0G	.	.
.	4f	.
.	4e	.
.	1d	1r
=19	=19	=19
1C	0.r	1cc
1c	.	1cc
1d	.	1a
=20	=20	=20
0e	1c	0g
.	1c	.
1f	1A	1cc
=21	=21	=21
2g	2G	2b
1e	1c	2.a
.	.	4g
4c	2e	1cc
4B	.	.
1G	1d	.
.	.	2b
=22	=22	=22
1C	2c	1cc
.	2e	.
1G	2d	2b
.	1g	2g
1d	.	1a
.	2f#i	.
=23	=23	=23
2G	1g	2g
2C	.	1e
2E	2c	.
2D	2d	2f
[1C	2e	1g
.	2c	.
=24	=24	=24
1C]	2r	1c
.	2e	.
1r	1g	2d
.	.	2.e
2F	2a	.
.	.	4f
[2C	2g	[2g
=25	=25	=25
1C]	2r	4g]
.	.	4a
.	2c	2g
2C	2.e	2c
2c	.	1cc
.	4f	.
1G	1g	.
.	.	2b
=26	=26	=26
1A	2.c	1ee
.	4A	.
1r	2B	2dd
.	2A	2cc
1d	1a	1ff
=27	=27	=27
2e	2g	2ee
1B	1f	2.dd
.	.	4cc
2c	2e	1cc
1G	1d	.
.	.	2b
=28	=28	=28
0.Cl	0.cl	0.ccl
==	==	==
*-	*-	*-
!!!RDF**kern: l=long note in original notation
!!!RDF**kern: i=editorial accidental
!!!RDF**kern: N=signum congruentiae
!!!ENC: Chris Gage 1-25-2017
!!!END: 2018/12/10/
!!!EED: Jesse Rodin
!!!EEV: 2018/12/13/
!!!ONB: Translated from MusicXML and edited on 2018/12/13/ by Craig Sapp
!!muse2ps: C^@{COM}\n@{SMS}, @{folio}^v95,95,150c180
